!!!!SEGMENT: pl-kk--kk-i-382--036_anonim-jesu-salvator-mundi.krn
!!!id: 18xx:1523
!!!COM: Anonim
!!!OTL: Jesu salvator mundi
!!!PDT:
!!!SMS-siglum: PL-Kk
!!!SMS-shelfmark: Kk.I.382
!!!NIFC-rismID: 1001139993
!!!URL-scan: http://repozytorium.nifc.pl/skany/pl-kk-nut--i-382
!!!ONB-nifc: UWAGA: obsada: S/T1, T2, B2. Skan 0032, 0105, 0253
!!!SMS-variant:
!!!SMS-altvar:
**kern	**text	**kern	**kern	**text	**kern	**text
*part4	*part4	*part3	*part2	*part2	*part1	*part1
*staff4	*staff4	*staff3	*staff2	*staff2	*staff1	*staff1
*I"Basso II	*	*I"Alto vel Basso I	*I"Tenore II	*	*I"Soprano vel Tenore I.	*
*I'B. II	*	*I'A.	*I'T. II	*	*I'S. vel T. I	*
*clefF4	*	*clefF4	*clefG2	*	*clefG2	*
*k[b-]	*	*k[b-]	*k[b-]	*	*k[b-]	*
*F:	*	*F:	*F:	*	*F:	*
*M4/4	*	*M4/4	*M4/4	*	*M4/4	*
*met(c)	*	*met(c)	*met(c)	*	*met(c)	*
=1	=1	=1	=1	=1	=1	=1
*	*	*	*	*	*2\right	*
!	!	!	!LO:TX:t=P:problem:2/left:global	!	!LO:TX:t=P:problem:2\right:global	!
!LO:TX:t=P:problem:2\right:global	!	!LO:TX:t=P:problem:brak partii w źródle	!LO:TX:rj:a:t=Adagio religioso	!	!LO:TX:rj:a:t=Andante religioso	!
2F\	Je-	1ryy	2a/	Je-	2cc\	Je-
!	!	!	!	!	!LO:TX:t=P:problem:2/left & 2\right	!
2F\	-su	.	2a/	-su	(4ff\	-su,
.	.	.	.	.	4cc\)	.
=2	=2	=2	=2	=2	=2	=2
2E\	Je-	1ryy	2g/	Je-	(4cc\	Je-
.	.	.	.	.	4b-\)	.
!	!	!	!	!	!LO:TX:t=P:problem:2/left:global	!
2F\	-su	.	2a/	-su	2a/	-su,
!	!	!	!LO:LB:g=original	!	!	!
=3	=3	=3	=3	=3	=3	=3
2F\	sal-	1ryy	2a/	sal-	(4a/	sal-
.	.	.	.	.	4cc\)	.
!LO:TX:t=P:problem:2/left & 2\right	!	!	!LO:TX:t=P:problem:2/left & 2\right	!	!	!
4BB-/	-va-	.	4g/	-va-	4b-\	-va-
4BB-/	-tor	.	4b-\	-tor	4g/	-tor,
=4	=4	=4	=4	=4	=4	=4
2C/	mun-	1ryy	2a/	mun-	2f/	mun-
4C/	-di	.	4g/	-di,	4e/	-di,
4c\	ex	.	4r	.	4r	.
=5	=5	=5	=5	=5	=5	=5
(4c\	au-	1ryy	2r	.	2r	.
4A\)	.	.	.	.	.	.
4F#X\	-di	.	4r	.	4r	.
4F#\	ex-	.	4cc\	ex-	4ee-X\	ex
=6	=6	=6	=6	=6	=6	=6
*	*	*	*2\right	*	*	*
2G\	-au-	1ryy	2b-\	-au-	(4dd\	au-
.	.	.	.	.	4b-\)	.
2D\	-di,	.	(4b-\	-di,	(4gg\	-di,
.	.	.	4bn\)	.	4ff\)	.
!	!	!	!LO:LB:g=original	!	!LO:LB:g=original	!
=7	=7	=7	=7	=7	=7	=7
4C/	pre-	1ryy	4cc\	pre-	4een\	pre-
4C/	-ces	.	4g/	-ces	4b-\	-ces
4.C/	su-	.	4.b-X\	sup-	4.dd\	su-
8C/	-pli-	.	8a/	-li-	8cc\	-pli-
=8	=8	=8	=8	=8	=8	=8
(2C/	-cu	1ryy	(2g/	-cum	(2b-\	-cum
4F\)	.	.	4f/)	.	4a/)	.
8.F\	mi-	.	4r	.	4r	.
16F\	-se-	.	.	.	.	.
=9	=9	=9	=9	=9	=9	=9
(2F\	-re-	1ryy	8.b-\	mi-	8.dd-X\	mi-
.	.	.	16b-\	-se-	16dd-\	-se-
.	.	.	2b-\	-re-	2dd-\	-re-
4E\)	.	.	.	.	.	.
8E\	-mi-	.	8a/	-mi-	8cc\	-mi-
8E\	-ni	.	8g/	-ni,	8b-\	-ni
!	!	!	!LO:LB:g=original	!	!	!
=10	=10	=10	=10	=10	=10	=10
4F\	me-	1ryy	2f/	me-	2a/	me-
4c\	-i	.	.	.	.	.
(8d\L	mi-	.	4f/	-i,	4a/	-i
8c\	.	.	.	.	.	.
8A\J)	.	.	4r	.	4r	.
8F\	-se-	.	.	.	.	.
=11	=11	=11	=11	=11	=11	=11
(2F\	-re-	1ryy	8.b-\	mi-	8.dd-X\	mi-
.	.	.	16b-\	-se-	16dd-\	-se-
.	.	.	2b-\	-re-	2dd-\	-re-
4E\)	.	.	.	.	.	.
!	!	!	!	!	!LO:LB:g=original	!
8E\	-mi-	.	8a/	-mi-	8cc\	-mi-
8E\	-ni,	.	8g/	-ni,	8b-\	-ni,
=12	=12	=12	=12	=12	=12	=12
4F\	me-	1ryy	2f/	me-	2a/	me-
4F\	-i,	.	.	.	.	.
4E\	sal-	.	4f/	-i,	4a/	-i
4D\	-tem	.	4r	.	4r	.
=13	=13	=13	=13	=13	=13	=13
2G\	sal-	1ryy	2bn\	sal-	2dd\	sal-
2F\	-tem	.	2g/	-tem	(4cc\	-tem
.	.	.	.	.	4bn\)	.
!	!	!	!LO:LB:g=original	!	!	!
=14	=14	=14	=14	=14	=14	=14
2E\	vos	1ryy	4cc\	sal-	4gg\	sal-
.	.	.	4cc\	-tem	4gg\	-tem
(4D\	a-	.	4bn\	vos	4ff\	vos
4C/)	.	.	4cc\	a-	4ee\	a-
=15	=15	=15	=15	=15	=15	=15
4F\	-mi-	1ryy	4a/	-mi-	4cc#X\	-mi-
4F\	-ci,	.	4a/	-ci	4dd\	-ci
(4G\	me-	.	(4a/	me-	(4ff\	me-
4GG/)	.	.	8g/L	.	8ee\L	.
.	.	.	8f/J)	.	8dd\J)	.
!	!	!	!	!	!LO:LB:g=original	!
=16	=16	=16	=16	=16	=16	=16
4C/	-im	1ryy	4e/	-i,	4ccn\	-i,
(4C/	qui-	.	4r	.	4r	.
4E\)	.	.	2r	.	2r	.
4G\	-a	.	.	.	.	.
=17	=17	=17	=17	=17	=17	=17
!	!	!	!	!	!LO:TX:a:t=1	!
2B-X\	ma-	1ryy	4r	.	1r	.
.	.	.	(4e/	qui-	.	.
(4B-\	-nus	.	4g/)	.	.	.
4G\)	.	.	4b-\	-a	.	.
!	!	!	!LO:LB:g=original	!	!	!
=18	=18	=18	=18	=18	=18	=18
2F\	ma-	1ryy	(4dd\	ma-	4r	.
.	.	.	4cc\)	.	(4a/	qui-
2F\	-nus	.	(4a/	-nus	4cc\)	.
.	.	.	4cc\)	.	4ff\	-a
=19	=19	=19	=19	=19	=19	=19
2..C/	Do-	1ryy	2..b-\	Do-	4ee\	ma-
.	.	.	.	.	4dd\	-nus
.	.	.	.	.	4.cc\	Do-
8C/	-mi-	.	8b-\	-mi-	8cc\	-mi-
=20	=20	=20	=20	=20	=20	=20
4F\	-ni,	1ryy	4a/	-ni,	4cc\	-ni,
(4C/	qui-	.	4r	.	4r	.
4F\)	.	.	2r	.	2r	.
4A\	-a	.	.	.	.	.
=21	=21	=21	=21	=21	=21	=21
!	!	!	!	!	!LO:TX:a:t=1	!
2B-\	ma-	1ryy	4r	.	1r	.
.	.	.	(4e/	qui-	.	.
(4B-\	-nus	.	4g/)	.	.	.
4G\)	.	.	4b-\	-a	.	.
=22	=22	=22	=22	=22	=22	=22
2A\	ma-	1ryy	(4dd\	ma-	4r	.
.	.	.	4cc\)	.	(4a/	qui-
2F\	-nus	.	2a/	-nus	4cc\)	.
.	.	.	.	.	4ff\	-a
!	!	!	!LO:PB:g=original	!	!LO:LB:g=original	!
=23	=23	=23	=23	=23	=23	=23
(2D-X\	Do-	1ryy	2..b-\	Do-	4ff\	ma-
.	.	.	.	.	4ff\	-nus
4.C/)	.	.	.	.	4.ee\	Do-
8C/	-mi-	.	8b-\	-mi-	8ee\	-mi-
=24	=24	=24	=24	=24	=24	=24
4F\	-ni	1ryy	2a/	-ni	2ff\	-ni
4F\	te	.	.	.	.	.
4F\	ti-	.	2b-\	te-	2dd-X\	te
8F\L	-git	.	.	.	.	.
8E\J	.	.	.	.	.	.
=25	=25	=25	=25	=25	=25	=25
4F\	me	1ryy	2a/	-ti-	2cc\	ti
4F\	te	.	.	.	.	.
4F\	ti-	.	2b-\	-git	2dd-X\	git
8F\L	-git	.	.	.	.	.
8E\J	.	.	.	.	.	.
=26	=26	=26	=26	=26	=26	=26
4F\	me	1ryy	[>1a/	me	[1cc\	me
4F\	te-	.	.	.	.	.
4C/	-ti-	.	.	.	.	.
4AA/	-git	.	.	.	.	.
=27	=27	=27	=27	=27	=27	=27
2FF/	me	1ryy	2a/]	.	2cc\]	.
2r	.	.	2r	.	2r	.
==	==	==	==	==	==	==
*-	*-	*-	*-	*-	*-	*-
!!!system-decoration: [(s1,s2,s3,s4)]
!!!RDF**kern: > = above
!!!RDF**kern: < = below
!!!ENC: Mateusz Solarz
!!!END: 2021-01-29
!!!EED: Leszek Kubiak
!!!EST: 2021-02-08
